frontend/src/assets/icons/image-user.svg

<svg width="24" height="24" viewBox="0 0 24 24" fill="none" xmlns="http://www.w3.org/2000/svg">
<g id="image-user">
<path id="Icon" d="M4.00002 21.8174C4.6026 22 5.41649 22 6.8 22H17.2C18.5835 22 19.3974 22 20 21.8174M4.00002 21.8174C3.87082 21.7783 3.75133 21.7308 3.63803 21.673C3.07354 21.3854 2.6146 20.9265 2.32698 20.362C2 19.7202 2 18.8802 2 17.2V6.8C2 5.11984 2 4.27976 2.32698 3.63803C2.6146 3.07354 3.07354 2.6146 3.63803 2.32698C4.27976 2 5.11984 2 6.8 2H17.2C18.8802 2 19.7202 2 20.362 2.32698C20.9265 2.6146 21.3854 3.07354 21.673 3.63803C22 4.27976 22 5.11984 22 6.8V17.2C22 18.8802 22 19.7202 21.673 20.362C21.3854 20.9265 20.9265 21.3854 20.362 21.673C20.2487 21.7308 20.1292 21.7783 20 21.8174M4.00002 21.8174C4.00035 21.0081 4.00521 20.5799 4.07686 20.2196C4.39249 18.6329 5.63288 17.3925 7.21964 17.0769C7.60603 17 8.07069 17 9 17H15C15.9293 17 16.394 17 16.7804 17.0769C18.3671 17.3925 19.6075 18.6329 19.9231 20.2196C19.9948 20.5799 19.9996 21.0081 20 21.8174M16 9.5C16 11.7091 14.2091 13.5 12 13.5C9.79086 13.5 8 11.7091 8 9.5C8 7.29086 9.79086 5.5 12 5.5C14.2091 5.5 16 7.29086 16 9.5Z" stroke="black" stroke-width="2" stroke-linecap="round" stroke-linejoin="round"/>
</g>
</svg>

<svg xmlns="http://www.w3.org/2000/svg" width="24" height="24" fill="none" viewBox="0 0 24 24">
  <path stroke="#000" stroke-linecap="round" stroke-linejoin="round" stroke-width="2" d="M4 21.817C4.603 22 5.416 22 6.8 22h10.4c1.384 0 2.197 0 2.8-.183m-16 0a2.18 2.18 0 0 1-.362-.144 3 3 0 0 1-1.311-1.311C2 19.72 2 18.88 2 17.2V6.8c0-1.68 0-2.52.327-3.162a3 3 0 0 1 1.311-1.311C4.28 2 5.12 2 6.8 2h10.4c1.68 0 2.52 0 3.162.327a3 3 0 0 1 1.311 1.311C22 4.28 22 5.12 22 6.8v10.4c0 1.68 0 2.52-.327 3.162a3 3 0 0 1-1.311 1.311 2.18 2.18 0 0 1-.362.144m-16 0c0-.809.005-1.237.077-1.597a4 4 0 0 1 3.143-3.143C7.606 17 8.07 17 9 17h6c.93 0 1.394 0 1.78.077a4 4 0 0 1 3.143 3.143c.072.36.077.788.077 1.597M16 9.5a4 4 0 1 1-8 0 4 4 0 0 1 8 0Z"/>
</svg>
